X:1
T:Title
%%score { ( 1 3 ) | ( 2 4 ) }
L:1/8
Q:1/4=100
M:4/4
K:A
V:1 treble nm="Grand Piano"
V:3 treble 
V:2 bass 
V:4 bass 
V:1
 [CE]2 [DF]>[CE] [CE] [CA]2 [EA] | B2 e2 c4 | [FB]2 [FA]>F E2 [CA]2 | [EB]6 z2 | %4
w: O.~R.~Barrows * * * * *||||
 [CE]2 [DF]>[CE] [CE] [CA]2 [EA] | B2 e2 c4 | z4 c2 z2 | [CA]6 z2 | z4 [Fd]2 d2 | c8 | %10
w: ||||||
 e2 c>d [CAe]2 [EAc]2 | B8 | [CE]2 [DF]>[CE] [CE] [CA]2 [EA] | B2 e2 c4 | z4 c2 z2 | [CA]6 z2 |] %16
w: ||||||
V:2
 [A,,A,]2 [A,,A,]>[A,,A,] [A,,A,] [A,,A,]2 [C,A,] | [E,G,E]2 [E,G,E]2 [A,E]4 | %2
 [D,D]2 [D,A,]>[D,A,D] [C,A,]2 [A,,A,]2 | [E,G,]6 z2 | %4
 [A,,A,]2 [A,,A,]>[A,,A,] [A,,A,] [A,,A,]2 [C,A,] | [E,G,E]2 [E,G,E]2 [A,E]4 | %6
 [E,G,D]2 [E,C]>[E,D] [E,E]2 [E,G,D]2 | [A,,A,]6 z2 | %8
 [D,A,]2 [D,A,]>[D,A,] .[D,A,]2 [F,A,F][G,B,] | [A,E]2 [A,,E,]2 [A,,A,]4 | %10
 [A,CA]2 [A,E]>[K:bass][A,B,E] A,,B,,C,D, | z2[K:treble] E>E EDC[K:bass]B, | %12
 [A,,A,]2 [A,,A,]>[A,,A,] [A,,A,] [A,,A,]2 [C,A,] | [E,G,E]2 [E,G,E]2 [A,E]4 | %14
 [E,G,D]2 [E,C]>[E,D] [E,E]2 [E,G,D]2 | [A,,A,]6 z2 |] %16
V:3
 x8 | x8 | x8 | x8 | x8 | x8 | B2 A>B z A, B2 | x8 | [Fd]2 [Fd]>[Fd] z E, z E | z2 C2 E4 | x8 | %11
 [EG]2 G>G GFED | x8 | x8 | B2 A>B z A, B2 | x8 |] %16
V:4
 x8 | x8 | x8 | x8 | x8 | x8 | x8 | x8 | x8 | x8 | x7/2[K:bass] x9/2 | E,8[K:treble][K:bass] | x8 | %13
 x8 | x8 | x8 |] %16

